X:690
T:The Splendid Shilling
C:Unknown, 1790-1800
S:Colin Hume's website,  colinhume.com  - chords can also be printed below the stave.
Q:3/8=120
M:6/8
L:1/8
K:G
P:A1
D | "G"G3 BGB | "D7"c2A F2D | "G"G3 BGB | "G7"d2B GAB | "C"c2e "D7"A2c | "G"B2d "Em"G2B | "Am"A2B "C"c2B | "D7"ABG FED |
P:A2
"G"G3 BGB | "D7"c2A F2D | "G"G3 BGB | "G7"d2B GAB | "C"c2e "D7"A2c | "G"B2d "Em"G2B | "Am"AcB "D"AGF | "G"G3 G2d ||
P:B
"G"g3 dcB | "Am"cBc "D"dfa | "G"g3 dBd | "Am"ecA "D"A2d | "Em"g2a bag | "D"f2g afd |
"A7"egf ed^c | "D"d3 dcB | "C"c2d edc | "G"B2c dcB | "Am"A2B "C"c2B | "D7"ABG FED ||
P:A3
"G"G3 BGB | "D7"c2A F2D | "G"G3 BGB | "G7"d2B GAB |\
"C"c2e "D7"A2c | "G"B2d "Em"G2B | "Am"AcB "D"AGF | "G"G3 G2 |]
